X:3
T:Il est vivant, ressuscit - I174
M:4/4
L:1/4
K:C
E2 D2|C2 D2|EE F/E/F|G3z|E2 D2|C2 D2|EF E/D/D|C2 z2||EE EE|FA GD|
C2F/F3/|D3z|GG GG|Ac BG|cc B/A/B|c3z||
